X: 184
T: Falmouth Assembly
%R: jig
B: Chas & Sam Thompson "Twenty Four Country Dances for the Year 1780", London 1780, p.92 #2
F: http://www.vwml.org/browse/browse-collections-dance-tune-books/browse-thompsons1780
Z: 2014 John Chambers <jc:trillian.mit.edu> (added dance description)
M: 6/8
L: 1/8
K: G
% - - - - - - - - - - - - - - - - - - - - - - - - - - - - -
d |\
BGG GAB | cAA ABc |\
dgd dBG | TA3 G2 :|\
|: d |\
g2d e2d | edc BAG |
gag fed | Te3 d2d/c/ |\
BAG GAB | cBA ABc |\
dgd dBG | TA3 G2 :|
% - - - - - - - - - - Dance description - - - - - - - - - -
%%begintext align
%%   Half right and Left .|. the same
%% back again :|. Lead down the middle
%% up again and cast off .|: Hands Six
%% round :|:
%%endtext

%%sep 1 1 500
%%sep 1 1 500
